icons/podverse.svg

<svg width="32" height="32" viewBox="0 0 32 32" fill="none" xmlns="http://www.w3.org/2000/svg">
<g clip-path="url(#clip0_29_468)">
<path d="M3.36667 28.6333C0.913333 26.18 0 22.18 0 16C0 9.82 0.913333 5.82 3.36667 3.36667C5.82 0.913333 9.82 0 16 0C22.18 0 26.18 0.913333 28.6333 3.36667C31.0867 5.82 32 9.82 32 16C32 22.18 31.0867 26.18 28.6333 28.6333C26.18 31.0867 22.18 32 16 32C9.82 32 5.82 31.0867 3.36667 28.6333Z" fill="black"/>
<path d="M21.7006 8.04789C23.2814 9.43711 24.1437 10.1557 25.1018 13.2215C25.485 14.3712 25.485 14.9461 25.485 16.2874C25.2934 18.3952 24.9102 19.5449 23.9521 21.0778L22.994 22.994C22.4191 24.1437 21.6527 24.9102 20.503 25.2934L19.9281 25.485C19.7365 25.2934 21.6527 18.7784 21.8443 18.5868C22.0359 18.3952 22.2275 18.5868 22.4191 18.97L22.994 19.3533L23.1856 18.97C23.9521 16.8623 23.9521 14.7545 22.994 12.8383C21.6527 9.96406 19.1617 8.23951 15.9042 8.23951C10.5389 8.23951 6.89819 13.6048 8.81435 18.97L9.00597 19.3533L9.38921 18.7784L10.1557 18.3952L12.0718 25.2934H11.6886C10.3473 24.9102 9.58082 24.3353 9.00597 22.994L7.85627 21.0778C7.0898 19.5449 6.70657 18.3952 6.51495 16.2874C6.51495 14.9461 6.51495 14.3712 6.89819 13.2215C8.43112 8.23951 14.2275 4.21556 20.8862 7.52094L21.7006 8.04789ZM12.2635 17.8203C12.8383 18.2036 14.3712 24.3353 14.1796 24.9102C13.988 25.2934 13.0299 25.6766 12.8383 25.2934L10.7305 17.6287C10.9221 17.4371 11.6886 17.4371 12.2635 17.8203ZM21.2694 17.6287C21.2694 18.012 19.3533 25.2934 18.97 25.485C18.97 25.6766 18.012 25.2934 17.8203 24.9102C17.4371 24.5269 19.1617 18.3952 19.7365 17.8203C20.1197 17.4371 21.0778 17.2455 21.2694 17.6287Z" fill="#0C7BB3"/>
</g>
<defs>
<clipPath id="clip0_29_468">
<rect width="32" height="32" fill="white"/>
</clipPath>
</defs>
</svg>

<svg xmlns="http://www.w3.org/2000/svg" width="32" height="32" fill="none" viewBox="0 0 32 32">
  <g clip-path="url(#a)">
    <path fill="#000" d="M3.367 28.633C.913 26.18 0 22.18 0 16 0 9.82.913 5.82 3.367 3.367 5.82.913 9.82 0 16 0c6.18 0 10.18.913 12.633 3.367C31.087 5.82 32 9.82 32 16c0 6.18-.913 10.18-3.367 12.633C26.18 31.087 22.18 32 16 32c-6.18 0-10.18-.913-12.633-3.367Z"/>
    <path fill="#0C7BB3" d="M21.7 8.048c1.581 1.39 2.444 2.108 3.402 5.174.383 1.15.383 1.724.383 3.065-.192 2.108-.575 3.258-1.533 4.79l-.958 1.917c-.575 1.15-1.341 1.916-2.491 2.3l-.575.191c-.192-.192 1.725-6.707 1.916-6.898.192-.192.383 0 .575.383l.575.383.192-.383c.766-2.108.766-4.215-.192-6.132-1.341-2.874-3.832-4.598-7.09-4.598-5.365 0-9.006 5.365-7.09 10.73l.192.383.383-.575.767-.383 1.916 6.898h-.383c-1.342-.383-2.108-.958-2.683-2.299l-1.15-1.916c-.766-1.533-1.15-2.683-1.341-4.79 0-1.342 0-1.917.383-3.066 1.533-4.982 7.33-9.006 13.988-5.701l.815.527Zm-9.437 9.772c.575.384 2.108 6.515 1.917 7.09-.192.383-1.15.767-1.342.383l-2.107-7.664c.191-.192.957-.192 1.532.191Zm9.006-.191c0 .383-1.916 7.664-2.299 7.856 0 .192-.958-.192-1.15-.575-.383-.383 1.342-6.515 1.916-7.09.384-.383 1.342-.575 1.533-.191Z"/>
  </g>
  <defs>
    <clipPath id="a">
      <path fill="#fff" d="M0 0h32v32H0z"/>
    </clipPath>
  </defs>
</svg>
